X:2847
T:Charles Stewards Reel. JMT.008
M:C
L:1/8
Q:200
S:John Moore,Tyneside,1841. (04b)
R:Reel
O:England
A:Northumbria
N:Charles Mcxxxx's Ree
H:1841
Z:vmp.John Adams
K:D
dB | (GE)FD G2 GB | (AF)FD E2 EF | (AF)FD (GA)Bd | .A.G.F.E D2 :|!
:Ac | d2fd (eg)fc | d2 (fd) edBc | d2 fd eafe | (fa)ef d2 :|


